!!!COM: Bach, Johann Sebastian
!!!OTL: 273. Ein' feste Burg ist unser Gott
!!!ONM: No. 273
!!!OCL: Erk
!!!SCA: BWV 80.8
!!!YOE: Riemenschneider, Albert
!!!OPR: 371 Harmonized Chorales and 69 Chorale Melodies with Figured Bass
!!!OPT: Bach Chorale Harmonizations
!!!ONB: From the end of Cantata 80.
**harm	**root	**kern	**kern	**kern	**kern
!	!	!bass	!tenor	!alto	!sprno
*Iorgan	*Iorgan	*Iorgan	*Iorgan	*Iorgan	*Iorgan
*>[A,A,B]	*>[A,A,B]	*>[A,A,B]	*>[A,A,B]	*>[A,A,B]	*>[A,A,B]
*>norep[A,B]	*>norep[A,B]	*>norep[A,B]	*>norep[A,B]	*>norep[A,B]	*>norep[A,B]
*>A	*>A	*>A	*>A	*>A	*>A
*k[f#c#g#]	*k[f#c#g#]	*k[f#c#g#]	*k[f#c#g#]	*k[f#c#g#]	*k[f#c#g#]
*A:	*A:	*A:	*A:	*A:	*A:
*met(c)	*met(c)	*met(c)	*met(c)	*met(c)	*met(c)
*M4/4	*M4/4	*M4/4	*M4/4	*M4/4	*M4/4
*MM60	*MM60	*MM60	*MM60	*MM60	*MM60
I	4DD	8A	8c#	4e	4a
.	.	8G#	8B	.	.
=1	=1	=1	=1	=1	=1
vi7	4BB	4F#	8A	8e	4a
.	.	.	8B	8d	.
Ic	4DD	8E	8c#	8c#	4a
.	.	8D	8d	8B	.
Ib	8DD	8C#	4e	4A	8e
IV	8GG	8D	.	.	8f#
viib	4CC#	8C#	4d	4B	4g#
.	.	8BB	.	.	.
=2	=2	=2	=2	=2	=2
Ib	8DD	4C#	4c#	8E	8a
iii	8FF#	.	.	4e	8g#
V/V	4EE	4BB	8F#	.	4f#
.	.	.	8B	8d#	.
V;	4AA;	4EE;	4G#;	4B;	4e;
vi	4BB	4FF#	8C#	4f#	4a
.	.	.	8D#	.	.
=3	=3	=3	=3	=3	=3
Vb	4AA	8GG#	4E	8B	4g#
.	.	8AA	.	8c#	.
ii	4EE	4BB	8B	4d	4f#
.	.	.	8A	.	.
iii	4FF#	4C#	4G#	8c#	4e
.	.	.	.	8B	.
IV	8GG	8D	8F#	8A	8f#
V	8AA	8E	8G#	8G#	8e
=4	=4	=4	=4	=4	=4
IVb	4GG	8F#	4A	4F#	8d
.	.	8D	.	.	8c#
V	4AA	8E	8E	4G#	4B
.	.	8EE	8D	.	.
I;	4DD;	4AA;	4C#;	4E;	4A;
=:|!	=:|!	=:|!	=:|!	=:|!	=:|!
*>B	*>B	*>B	*>B	*>B	*>B
!! Repeat from the beginning.
!! Continuing.
I	4DD	8AA	8C#	4A	4A
.	.	8BB	8D	.	.
=5	=5	=5	=5	=5	=5
iii	4FF#	4C#	8E	8G#	4e
.	.	.	8A	8c#	.
Vb/V	4EE	4D#	8G#	4B	4f#
.	.	.	8F#	.	.
V	4AA	8E	4G#	8B	4e
.	.	8AA	.	8c#	.
V/V	4EE	4BB	4F#	4B	4d#
=6	=6	=6	=6	=6	=6
!!linebreak: 2
V;	2AA;	2EE;	2G#;	2B;	2e;
vi	4BB	4FF#	8C#	4A	4A
.	.	.	8D	.	.
Ib	4DD	4C#	4E	8A	4e
.	.	.	.	8G	.
=7	=7	=7	=7	=7	=7
IV	4GG	4D	4A	8F#	4f#
.	.	.	.	8A	.
viib	4CC#	4BB	4B	4d	4g#
I;	4DD;	4AA;	4E;	4c#;	4a;
iii	4FF#	4C#	4E	4c#	4g#
=8	=8	=8	=8	=8	=8
vi7	4BB	4FF#	8E	4c#	4a
.	.	.	8D#	.	.
Vb	4AA	4GG#	4E	8B	4g#
.	.	.	.	8e	.
vi7b	4BB	4AA	4E	4c#	2f#
V/V	4EE	4BB	4D#	8B	.
.	.	.	.	8A	.
=9	=9	=9	=9	=9	=9
V;	4AA;	4EE;	4BB;	4G#;	4e;
ii	4EE	8BB	8D	4B	4f#
.	.	8C#	8E	.	.
IV	4GG	4D	8F#	8A	4f#
.	.	.	8G#	8B	.
I	4DD	4AA	8A	4c#	4e
.	.	.	8G	.	.
=10	=10	=10	=10	=10	=10
Vb/ii	4BB	4AA#	4F#	4c#	8f#
.	.	.	.	.	8e
ii	4EE	4BB	4F#	8c#	4d
.	.	.	.	8B	.
VI;	4BB;	4FF#;	4F#;	4A#;	4c#;
vi	4BB	4FF#	8F#	4c#	4a
.	.	.	8E	.	.
=11	=11	=11	=11	=11	=11
viib	4CC#	8BB	8D	4B	4g#
.	.	8C#	8E	.	.
IV	8GG	8D	4F#	8A	4f#
ii	8EE	8BB	.	8d	.
V7b	8AA	8GG#	8B	8d	4e
V	8AA	8EE	8G#	16c#	.
.	.	.	.	16B	.
I	4DD	8AA	4A	4c#	8f#
.	.	8GG#	.	.	8e
=12	=12	=12	=12	=12	=12
IVb	8GG	8FF#	4A	8d	8d
IV7	8GG	8DD	.	8F#	8c#
V	4AA	4EE	8E	4G#	4B
.	.	.	8D	.	.
I;	4DD;	4AAA;	4C#;	4E;	4A;
==	==	==	==	==	==
*-	*-	*-	*-	*-	*-
!!!CDT: 1685/3//-1750/7/28
!!!OCY: Deutschland
!!!AGN: chorale
!!!AST: Baroque
!!!AIN: vox
!!!YOY: 1941
!!!PPP: New York; London
!!!PPR: G. Schirmer
!!!ENC: David Huron
!!!EED: David Huron
!!!YEN: United States of America
!!!YER: 1992
!!!YEC: Copyright 1992 David Huron
!!!YEM: Rights to all derivative electronic formats reserved.
!!!YER: March 20, 1996
!!!AMT: simple quadruple
!!!EEV: 1.1
!!chor2scor: -l 2 -s 0.6 -o %b.pmx
